!!!COM: Music21
!!!OTL: Canta o merlo na silveira
!!!OMV: pezas_alalas_canta-o-merlo-na-silveira_canta-o-merlo-na-silveira-partitura.musicxml
**kern
*I"Veu
*I'Ve.
*clefG2
*k[b-e-a-d-]
*M2/4
*MM60
=1
!LO:TX:a:t=[quarter]=60
8.cL
16dnJk
16e-LL
16f
16g
16a-JJ
=||
*M3/4
8b-L
24a-L
24b-
24a-JJ
4g
8b-L
8a-J
=
8b-L
24a-L
24b-
24a-JJ
4f
8gL
8a-J
=
8b-L
24a-L
24b-
24a-JJ
[2g
!!linebreak:original
=||
8g;L]
16cL
16cJJ
8gL
8gJ
8fL
8a-J
=
8gL
8gJ
4c
4en
=
8fL
8enJ
8dnL
8fJ
8eL
24dL
24e
24dJJ
=||
*M2/4
[2c
!!linebreak:original
=||
*M3/4
8cL]
16cL
16cJJ
8gL
8gJ
8fL
8a-J
=||
4g
4c
4en
=
8fL
8enJ
8dnL
8fJ
8eL
24dL
24e
24dJJ
=||
*M2/4
[2c
=
4c;]
4r
==
*-
